svgs/roov.svg

<svg xmlns="http://www.w3.org/2000/svg" viewBox="0 0 192 192"><path d="M51.157 144.912c-9.343-2.513-19.981-10.089-25.935-18.471-12.028-16.933-12.326-43.05-.682-59.687 5.108-7.299 10.762-12.126 19.401-16.567 6.358-3.268 7.897-3.58 17.679-3.583 11.859-.003 18.293 1.796 25.957 7.257l4.529 3.227-4.225 6.036c-2.324 3.32-5.278 9.136-6.564 12.924l-2.339 6.887-2.786-2.786c-4.298-4.296-7.554-5.687-13.445-5.741-7.122-.066-13.635 3.589-17.466 9.803-2.413 3.915-2.947 6.064-2.947 11.851 0 5.788.534 7.937 2.947 11.852 3.797 6.159 9.733 9.428 17.117 9.428 6.793 0 11.849-2.613 16.185-8.364 2.589-3.434 3.254-5.715 4.115-14.127 1.77-17.292 7.328-29.075 17.951-38.053 10.698-9.043 28.095-13.519 35.151-9.045 6.278 3.982 8.44 12.059 5.089 19.015-2.009 4.171-5.838 6.356-12.954 7.39-10.758 1.564-17.683 9.117-18.422 20.094-.884 13.113 7.581 23.09 19.589 23.09 6.496 0 11.093-2.196 15.259-7.29 7.448-9.106 6.771-21.951-1.594-30.274l-2.755-2.741 2.727-3.14c1.5-1.727 3.269-4.271 3.93-5.653 1.48-3.092 1.567-11.837.158-15.817-1.329-3.752-.738-3.696 6.22.587 32.218 19.835 30.088 70.934-3.675 88.147-16.199 8.259-34.953 5.833-49.606-6.416l-3.86-3.227-5.357 4.423c-7.821 6.457-15.452 9.277-26.25 9.699-5.01.196-10.923-.131-13.142-.728Z"/></svg>

<svg
    xmlns="http://www.w3.org/2000/svg"
    viewBox="0 0 192 192"
    id="vector">
    <g id="group">
        <path
            id="path_6"
            d="M 51.157 144.912 C 41.814 142.399 31.176 134.823 25.222 126.441 C 13.194 109.508 12.896 83.391 24.54 66.754 C 29.648 59.455 35.302 54.628 43.941 50.187 C 50.299 46.919 51.838 46.607 61.62 46.604 C 73.479 46.601 79.913 48.4 87.577 53.861 L 92.106 57.088 L 87.881 63.124 C 85.557 66.444 82.603 72.26 81.317 76.048 L 78.978 82.935 L 76.192 80.149 C 71.894 75.853 68.638 74.462 62.747 74.408 C 55.625 74.342 49.112 77.997 45.281 84.211 C 42.868 88.126 42.334 90.275 42.334 96.062 C 42.334 101.85 42.868 103.999 45.281 107.914 C 49.078 114.073 55.014 117.342 62.398 117.342 C 69.191 117.342 74.247 114.729 78.583 108.978 C 81.172 105.544 81.837 103.263 82.698 94.851 C 84.468 77.559 90.026 65.776 100.649 56.798 C 111.347 47.755 128.744 43.279 135.8 47.753 C 142.078 51.735 144.24 59.812 140.889 66.768 C 138.88 70.939 135.051 73.124 127.935 74.158 C 117.177 75.722 110.252 83.275 109.513 94.252 C 108.629 107.365 117.094 117.342 129.102 117.342 C 135.598 117.342 140.195 115.146 144.361 110.052 C 151.809 100.946 151.132 88.101 142.767 79.778 L 140.012 77.037 L 142.739 73.897 C 144.239 72.17 146.008 69.626 146.669 68.244 C 148.149 65.152 148.236 56.407 146.827 52.427 C 145.498 48.675 146.089 48.731 153.047 53.014 C 185.265 72.849 183.135 123.948 149.372 141.161 C 133.173 149.42 114.419 146.994 99.766 134.745 L 95.906 131.518 L 90.549 135.941 C 82.728 142.398 75.097 145.218 64.299 145.64 C 59.289 145.836 53.376 145.509 51.157 144.912 Z"
            fill="#000000"
            stroke-width="12"/>
    </g>
</svg>
